images_breeze_svg/cmd/32/importdialog.svg

<svg viewBox="0 0 32 32" xmlns="http://www.w3.org/2000/svg"><path d="m7 4v24h10v-1h-9v-22h18v17h-7.085938l3.792969-3.792969-.707031-.707031-4 4-1 1 1 1 4 4 .707031-.707031-3.792969-3.792969h8.085938v-.5-.5-18z" fill="#4d4d4d"/><path d="m5 18c-.55228 0-1 .44772-1 1 0 .55229.44772 1 1 1s1-.44771 1-1c0-.55228-.44772-1-1-1zm0 4c-.55228 0-1 .44772-1 1 0 .55229.44772 1 1 1s1-.44771 1-1c0-.55228-.44772-1-1-1zm0 4c-.55228 0-1 .44772-1 1 0 .55229.44772 1 1 1s1-.44771 1-1c0-.55228-.44772-1-1-1z" fill="#f47750"/></svg>

<?xml version="1.0" encoding="UTF-8" standalone="no"?>
<svg
   xmlns:dc="http://purl.org/dc/elements/1.1/"
   xmlns:cc="http://creativecommons.org/ns#"
   xmlns:rdf="http://www.w3.org/1999/02/22-rdf-syntax-ns#"
   xmlns:svg="http://www.w3.org/2000/svg"
   xmlns="http://www.w3.org/2000/svg"
   xmlns:sodipodi="http://sodipodi.sourceforge.net/DTD/sodipodi-0.dtd"
   xmlns:inkscape="http://www.inkscape.org/namespaces/inkscape"
   viewBox="0 0 32 32"
   version="1.1"
   id="svg6"
   sodipodi:docname="importdialog.svg"
   inkscape:version="0.92.4 (unknown)"
   inkscape:export-filename="/home/rizmut/Dokumen/Rizmut/Github/tmp/breeze/cmd/32/importdialog.png"
   inkscape:export-xdpi="96"
   inkscape:export-ydpi="96">
  <metadata
     id="metadata12">
    <rdf:RDF>
      <cc:Work
         rdf:about="">
        <dc:format>image/svg+xml</dc:format>
        <dc:type
           rdf:resource="http://purl.org/dc/dcmitype/StillImage" />
      </cc:Work>
    </rdf:RDF>
  </metadata>
  <defs
     id="defs10" />
  <sodipodi:namedview
     pagecolor="#ffffff"
     bordercolor="#666666"
     borderopacity="1"
     objecttolerance="10"
     gridtolerance="10"
     guidetolerance="10"
     inkscape:pageopacity="0"
     inkscape:pageshadow="2"
     inkscape:window-width="1360"
     inkscape:window-height="714"
     id="namedview8"
     showgrid="true"
     inkscape:zoom="14.75"
     inkscape:cx="10.842358"
     inkscape:cy="6.8812678"
     inkscape:window-x="0"
     inkscape:window-y="28"
     inkscape:window-maximized="1"
     inkscape:current-layer="svg6">
    <inkscape:grid
       type="xygrid"
       id="grid822" />
  </sodipodi:namedview>
  <path
     d="M 7,4 V 28 H 17 V 27 H 8 V 5 H 26 V 22 H 18.914062 L 22.707031,18.207031 22,17.5 l -4,4 -1,1 1,1 4,4 0.707031,-0.707031 L 18.914062,23 H 27 V 22.5 22 4 Z"
     id="path2"
     inkscape:connector-curvature="0"
     style="fill:#4d4d4d"
     sodipodi:nodetypes="cccccccccccccccccccccc" />
  <path
     d="m5 18c-.55228 0-1 .44772-1 1 0 .55229.44772 1 1 1s1-.44771 1-1c0-.55228-.44772-1-1-1zm0 4c-.55228 0-1 .44772-1 1 0 .55229.44772 1 1 1s1-.44771 1-1c0-.55228-.44772-1-1-1zm0 4c-.55228 0-1 .44772-1 1 0 .55229.44772 1 1 1s1-.44771 1-1c0-.55228-.44772-1-1-1z"
     fill="#f47750"
     id="path4" />
</svg>
